outputs/icons/editor/align_vertical_center_round.svg

<svg width="1200" height="1200" viewBox="0 0 1200 1200" fill="none" xmlns="http://www.w3.org/2000/svg"><g clip-path="url(#clip0_238_243)"><path d="M1050.005 550H850.005V375C850.005 333.5 816.505 300 775.005 300C733.505 300 700.005 333.5 700.005 375V550H500.005V225C500.005 183.5 466.505 150 425.005 150C383.505 150 350.005 183.5 350.005 225V550H142.005C114.505 550 92.005 572.5 92.005 600C92.005 627.5 114.505 650 142.005 650H350.005V975C350.005 1016.5 383.505 1050 425.005 1050C466.505 1050 500.005 1016.5 500.005 975V650H700.005V825C700.005 866.5 733.505 900 775.005 900C816.505 900 850.005 866.5 850.005 825V650H1050.005C1077.505 650 1100.005 627.5 1100.005 600C1100.005 572.5 1077.505 550 1050.005 550Z" fill="#1D1E23"/></g><defs><clipPath id="clip0_238_243"><path width="24" fill="white" d="M0 0H1200V1200H0V0z"/></clipPath></defs></svg>

<svg xmlns="http://www.w3.org/2000/svg" width="1200" height="1200" fill="none"><g clip-path="url(#a)"><path fill="#000" d="M1050.005 550h-200V375c0-41.5-33.5-75-75-75s-75 33.5-75 75v175h-200V225c0-41.5-33.5-75-75-75s-75 33.5-75 75v325h-208c-27.5 0-50 22.5-50 50s22.5 50 50 50h208v325c0 41.5 33.5 75 75 75s75-33.5 75-75V650h200v175c0 41.5 33.5 75 75 75s75-33.5 75-75V650h200c27.5 0 50-22.5 50-50s-22.5-50-50-50"/></g><defs><clipPath id="a"><path fill="#fff" d="M0 0h1200v1200H0z"/></clipPath></defs></svg>
